apps/64/utilities-terminal.svg

<?xml version="1.0" encoding="UTF-8" standalone="no"?>
<svg
   xmlns:dc="http://purl.org/dc/elements/1.1/"
   xmlns:cc="http://creativecommons.org/ns#"
   xmlns:rdf="http://www.w3.org/1999/02/22-rdf-syntax-ns#"
   xmlns:svg="http://www.w3.org/2000/svg"
   xmlns="http://www.w3.org/2000/svg"
   xmlns:xlink="http://www.w3.org/1999/xlink"
   version="1.1"
   width="64"
   height="64"
   id="svg4161">
  <defs
     id="defs4163">
    <linearGradient
       x1="20"
       y1="26.000008"
       x2="20"
       y2="13.000008"
       id="linearGradient4069"
       xlink:href="#linearGradient3680-6-6-6-3-7-1"
       gradientUnits="userSpaceOnUse"
       gradientTransform="matrix(1.326882,0,0,1.326882,-0.399219,-0.2324859)" />
    <linearGradient
       id="linearGradient3680-6-6-6-3-7-1">
      <stop
         id="stop3682-4-6-1-3-7-7"
         style="stop-color:#dcdcdc;stop-opacity:1"
         offset="0" />
      <stop
         id="stop3684-8-5-8-0-2-6"
         style="stop-color:#ffffff;stop-opacity:1"
         offset="1" />
    </linearGradient>
    <linearGradient
       x1="23.99999"
       y1="4.999989"
       x2="23.99999"
       y2="43"
       id="linearGradient3180"
       xlink:href="#linearGradient3924-2-2-5-8"
       gradientUnits="userSpaceOnUse"
       gradientTransform="matrix(1.4324324,0,0,1.4362832,-2.378381,-2.4707781)" />
    <linearGradient
       id="linearGradient3924-2-2-5-8">
      <stop
         id="stop3926-9-4-9-6"
         style="stop-color:#ffffff;stop-opacity:1"
         offset="0" />
      <stop
         id="stop3928-9-8-6-5"
         style="stop-color:#ffffff;stop-opacity:0.23529412"
         offset="0.06316455" />
      <stop
         id="stop3930-3-5-1-7"
         style="stop-color:#ffffff;stop-opacity:0.15686275"
         offset="0.95056331" />
      <stop
         id="stop3932-8-0-4-8"
         style="stop-color:#ffffff;stop-opacity:0.39215687"
         offset="1" />
    </linearGradient>
    <radialGradient
       cx="7.1183534"
       cy="9.9571075"
       r="12.671875"
       fx="7.1183534"
       fy="9.9571075"
       id="radialGradient3988-3"
       xlink:href="#linearGradient2867-449-88-871-390-598-476-591-434-148-57-177-8-3-3-6-4-8-8-8-5-7"
       gradientUnits="userSpaceOnUse"
       gradientTransform="matrix(0,12.890089,-15.824912,0,190.74237,-113.0978)" />
    <linearGradient
       id="linearGradient2867-449-88-871-390-598-476-591-434-148-57-177-8-3-3-6-4-8-8-8-5-7">
      <stop
         id="stop3750-1-0-7-6-6-1-3-9-3-9"
         style="stop-color:#505050;stop-opacity:1"
         offset="0" />
      <stop
         id="stop3752-3-7-4-0-32-8-923-0-7-0"
         style="stop-color:#2b2b2b;stop-opacity:1"
         offset="0.26238" />
      <stop
         id="stop3754-1-8-5-2-7-6-7-1-9-1"
         style="stop-color:#0a0a0a;stop-opacity:1"
         offset="0.704952" />
      <stop
         id="stop3756-1-6-2-6-6-1-96-6-0-1"
         style="stop-color:#000000;stop-opacity:1"
         offset="1" />
    </linearGradient>
    <radialGradient
       cx="4.9929786"
       cy="43.5"
       r="2.5"
       fx="4.9929786"
       fy="43.5"
       id="radialGradient3337-2-2"
       xlink:href="#linearGradient3688-166-749-4-0-3-8"
       gradientUnits="userSpaceOnUse"
       gradientTransform="matrix(2.003784,0,0,1.4,27.98813,-17.4)" />
    <linearGradient
       id="linearGradient3688-166-749-4-0-3-8">
      <stop
         id="stop2883-4-0-1-8"
         style="stop-color:#181818;stop-opacity:1"
         offset="0" />
      <stop
         id="stop2885-9-2-9-6"
         style="stop-color:#181818;stop-opacity:0"
         offset="1" />
    </linearGradient>
    <radialGradient
       cx="4.9929786"
       cy="43.5"
       r="2.5"
       fx="4.9929786"
       fy="43.5"
       id="radialGradient3339-1-4"
       xlink:href="#linearGradient3688-464-309-9-2-4-2"
       gradientUnits="userSpaceOnUse"
       gradientTransform="matrix(2.003784,0,0,1.4,-20.01187,-104.4)" />
    <linearGradient
       id="linearGradient3688-464-309-9-2-4-2">
      <stop
         id="stop2889-7-9-6-9"
         style="stop-color:#181818;stop-opacity:1"
         offset="0" />
      <stop
         id="stop2891-6-6-1-7"
         style="stop-color:#181818;stop-opacity:0"
         offset="1" />
    </linearGradient>
    <linearGradient
       id="linearGradient3702-501-757-8-4-1-1">
      <stop
         id="stop2895-8-9-9-1"
         style="stop-color:#181818;stop-opacity:0"
         offset="0" />
      <stop
         id="stop2897-7-8-7-7"
         style="stop-color:#181818;stop-opacity:1"
         offset="0.5" />
      <stop
         id="stop2899-4-5-1-5"
         style="stop-color:#181818;stop-opacity:0"
         offset="1" />
    </linearGradient>
    <linearGradient
       x1="25.058096"
       y1="47.027729"
       x2="25.058096"
       y2="39.999443"
       id="linearGradient4159"
       xlink:href="#linearGradient3702-501-757-8-4-1-1"
       gradientUnits="userSpaceOnUse" />
  </defs>
  <metadata
     id="metadata4166">
    <rdf:RDF>
      <cc:Work
         rdf:about="">
        <dc:format>image/svg+xml</dc:format>
        <dc:type
           rdf:resource="http://purl.org/dc/dcmitype/StillImage" />
        <dc:title />
      </cc:Work>
    </rdf:RDF>
  </metadata>
  <g
     id="layer1">
    <g
       transform="matrix(1.5789502,0,0,0.7142857,-5.894751,27.928572)"
       id="g3712-8-2-4-4"
       style="opacity:0.6">
      <rect
         width="5"
         height="7"
         x="38"
         y="40"
         id="rect2801-5-5-7-9"
         style="fill:url(#radialGradient3337-2-2);fill-opacity:1;stroke:none" />
      <rect
         width="5"
         height="7"
         x="-10"
         y="-47"
         transform="scale(-1,-1)"
         id="rect3696-3-0-3-7"
         style="fill:url(#radialGradient3339-1-4);fill-opacity:1;stroke:none" />
      <rect
         width="28"
         height="7.0000005"
         x="10"
         y="40"
         id="rect3700-5-6-8-4"
         style="fill:url(#linearGradient4159);fill-opacity:1;stroke:none" />
    </g>
    <rect
       width="55"
       height="55"
       rx="3"
       ry="3"
       x="4.5"
       y="4.5"
       id="rect5505-21-3-8-5-2"
       style="opacity:0.9;color:#000000;fill:url(#radialGradient3988-3);fill-opacity:1;fill-rule:nonzero;stroke:none;stroke-width:0.99999994;marker:none;visibility:visible;display:inline;overflow:visible;enable-background:accumulate" />
    <rect
       width="53"
       height="53.142479"
       rx="2"
       ry="2"
       x="5.4999986"
       y="5.4287739"
       id="rect6741-5-0-2-3"
       style="opacity:0.3;fill:none;stroke:url(#linearGradient3180);stroke-width:1;stroke-linecap:round;stroke-linejoin:round;stroke-miterlimit:4;stroke-opacity:1;stroke-dasharray:none;stroke-dashoffset:0" />
    <rect
       width="55"
       height="55"
       rx="3"
       ry="3"
       x="4.4999986"
       y="4.5000019"
       id="rect5505-21-3-8-9-1-1"
       style="opacity:0.7;color:#000000;fill:none;stroke:#000000;stroke-width:1;stroke-linecap:round;stroke-linejoin:round;stroke-miterlimit:4;stroke-opacity:1;stroke-dasharray:none;stroke-dashoffset:0;marker:none;visibility:visible;display:inline;overflow:visible;enable-background:accumulate" />
    <path
       d="M 17,16.0625 A 0.92595156,0.92595156 0 0 0 16.0625,17 l 0,0.3125 c -0.920804,0.174116 -1.828635,0.471612 -2.625,1.125 -0.0074,0.0061 -0.02386,-0.0061 -0.03125,0 l 0,0.03125 c -1.631359,1.29497 -1.750855,3.662789 -0.5625,5.21875 a 0.92595156,0.92595156 0 0 0 0.03125,0.03125 c 0.892594,1.083002 2.089768,1.57612 3.1875,2 l 0,1.03125 C 15.148159,26.5817 14.239385,26.421262 13.375,26.03125 A 0.92595156,0.92595156 0 0 0 12.0625,26.875 l 0,2.375 a 0.92595156,0.92595156 0 0 0 0.5625,0.84375 c 1.10256,0.467849 2.272026,0.614611 3.4375,0.71875 l 0,1.1875 A 0.92595156,0.92595156 0 0 0 17,32.9375 l 1,0 A 0.92595156,0.92595156 0 0 0 18.9375,32 l 0,-1.28125 c 0.705436,-0.09464 1.425619,-0.164929 2.125,-0.53125 l 0,0.03125 c 0.01345,-0.0066 0.01788,-0.02451 0.03125,-0.03125 1.319138,-0.665438 2.267517,-2.010517 2.21875,-3.53125 7.9e-5,-0.01028 1.5e-5,-0.02098 0,-0.03125 -0.0011,-0.742864 -0.262915,-1.439012 -0.6875,-2.03125 a 0.92595156,0.92595156 0 0 0 0,-0.03125 c -0.984633,-1.313902 -2.484858,-1.807082 -3.6875,-2.25 l 0,-0.90625 c 0.69467,0.120781 1.413199,0.217229 1.96875,0.4375 a 0.92595156,0.92595156 0 0 0 1.1875,-0.53125 l 0.875,-2.125 A 0.92595156,0.92595156 0 0 0 22.5,18 c -1.117568,-0.47877 -2.375157,-0.704659 -3.5625,-0.8125 l 0,-0.1875 A 0.92595156,0.92595156 0 0 0 18,16.0625 l -1,0 z m 9,16 A 0.92595156,0.92595156 0 0 0 25.0625,33 l 0,3 A 0.92595156,0.92595156 0 0 0 26,36.9375 l 11,0 A 0.92595156,0.92595156 0 0 0 37.9375,36 l 0,-3 A 0.92595156,0.92595156 0 0 0 37,32.0625 l -11,0 z"
       id="path4108"
       style="font-size:14.31169891px;font-style:normal;font-variant:normal;font-weight:bold;font-stretch:normal;line-height:125%;letter-spacing:0px;word-spacing:0px;opacity:0.15;color:#000000;fill:#000000;fill-opacity:1;fill-rule:nonzero;stroke:none;marker:none;visibility:visible;display:inline;overflow:visible;enable-background:accumulate;font-family:Open Sans;-inkscape-font-specification:Open Sans Bold" />
    <path
       d="m 17,17 0,1.0625 c -1.088974,0.104041 -2.154176,0.391472 -3,1.09375 -1.21398,0.93825 -1.298197,2.800888 -0.40625,3.96875 0.862432,1.046406 2.154572,1.527266 3.40625,2 l 0,2.8125 C 15.604363,27.823494 14.268165,27.447198 13,26.875 l 0,2.375 c 1.269335,0.538616 2.620137,0.785512 4,0.8125 L 17,32 l 1,0 0,-2 c 0.844638,-0.07591 1.908372,-0.226153 2.65625,-0.625 1.038951,-0.510076 1.764953,-1.58964 1.71875,-2.71875 0.0042,-0.545911 -0.175744,-1.078957 -0.5,-1.53125 C 21.007616,23.967556 19.308649,23.465104 18,22.9375 L 18,20.25 c 1.037582,0.08439 2.287384,0.337081 3.25,0.71875 l 0.875,-2.125 C 20.8958,18.317156 19.340107,18.086316 18,18.03125 L 18,17 17,17 z m 0,3.28125 0,2.15625 C 16.471711,22.205155 15.72597,21.91363 15.75,21.25 15.72528,20.623568 16.465193,20.34149 17,20.28125 z m 1,5.34375 c 0.523941,0.255688 1.488191,0.458683 1.5,1.125 0.03011,0.679927 -0.906863,1.014708 -1.5,1.09375 L 18,25.625 z m 8,7.375 0,3 11,0 0,-3 -11,0 z"
       id="path4041"
       style="font-size:14.31169891px;font-style:normal;font-variant:normal;font-weight:bold;font-stretch:normal;line-height:125%;letter-spacing:0px;word-spacing:0px;opacity:0.3;color:#000000;fill:#000000;fill-opacity:1;fill-rule:nonzero;stroke:none;marker:none;visibility:visible;display:inline;overflow:visible;enable-background:accumulate;font-family:Open Sans;-inkscape-font-specification:Open Sans Bold" />
    <path
       d="m 17,16 0,1.0625 c -1.088974,0.104041 -2.154176,0.391472 -3,1.09375 -1.21398,0.93825 -1.298197,2.800888 -0.40625,3.96875 0.862432,1.046406 2.154572,1.527266 3.40625,2 l 0,2.8125 C 15.604363,26.823494 14.268165,26.447198 13,25.875 l 0,2.375 c 1.269335,0.538616 2.620137,0.785512 4,0.8125 L 17,31 l 1,0 0,-2 c 0.844638,-0.07591 1.908372,-0.226153 2.65625,-0.625 1.038951,-0.510076 1.764953,-1.58964 1.71875,-2.71875 0.0042,-0.545911 -0.175744,-1.078957 -0.5,-1.53125 C 21.007616,22.967556 19.308649,22.465104 18,21.9375 L 18,19.25 c 1.037582,0.08439 2.287384,0.337081 3.25,0.71875 l 0.875,-2.125 C 20.8958,17.317156 19.340107,17.086316 18,17.03125 L 18,16 17,16 z m 0,3.28125 0,2.15625 C 16.471711,21.205155 15.72597,20.91363 15.75,20.25 15.72528,19.623568 16.465193,19.34149 17,19.28125 z m 1,5.34375 c 0.523941,0.255688 1.488191,0.458683 1.5,1.125 0.03011,0.679927 -0.906863,1.014708 -1.5,1.09375 L 18,24.625 z m 8,7.375 0,3 11,0 0,-3 -11,0 z"
       id="path4041-4"
       style="font-size:14.31169891px;font-style:normal;font-variant:normal;font-weight:bold;font-stretch:normal;line-height:125%;letter-spacing:0px;word-spacing:0px;color:#000000;fill:url(#linearGradient4069);fill-opacity:1;fill-rule:nonzero;stroke:none;marker:none;visibility:visible;display:inline;overflow:visible;enable-background:accumulate;font-family:Open Sans;-inkscape-font-specification:Open Sans Bold" />
  </g>
</svg>

<svg xmlns="http://www.w3.org/2000/svg" xmlns:xlink="http://www.w3.org/1999/xlink" viewBox="0 0 64 64"><defs><linearGradient x1="20" y1="26" x2="20" y2="13" id="l" xlink:href="#a" gradientUnits="userSpaceOnUse" gradientTransform="translate(-.4 -.232) scale(1.32688)"/><linearGradient id="a"><stop offset="0" stop-color="#dcdcdc"/><stop offset="1" stop-color="#fff"/></linearGradient><linearGradient x1="24" y1="5" x2="24" y2="43" id="k" xlink:href="#b" gradientUnits="userSpaceOnUse" gradientTransform="matrix(1.43243 0 0 1.43628 -2.378 -2.47)"/><linearGradient id="b"><stop offset="0" stop-color="#fff"/><stop offset=".063" stop-color="#fff" stop-opacity=".235"/><stop offset=".951" stop-color="#fff" stop-opacity=".157"/><stop offset="1" stop-color="#fff" stop-opacity=".392"/></linearGradient><radialGradient cx="7.118" cy="9.957" r="12.672" fx="7.118" fy="9.957" id="j" xlink:href="#c" gradientUnits="userSpaceOnUse" gradientTransform="scale(15.8249 12.8901) rotate(90 10.414 1.64)"/><linearGradient id="c"><stop offset="0" stop-color="#505050"/><stop offset=".262" stop-color="#2b2b2b"/><stop offset=".705" stop-color="#0a0a0a"/><stop offset="1"/></linearGradient><radialGradient cx="4.993" cy="43.5" r="2.5" fx="4.993" fy="43.5" id="g" xlink:href="#d" gradientUnits="userSpaceOnUse" gradientTransform="matrix(2.00378 0 0 1.4 27.988 -17.4)"/><linearGradient id="d"><stop offset="0" stop-color="#181818"/><stop offset="1" stop-color="#181818" stop-opacity="0"/></linearGradient><radialGradient cx="4.993" cy="43.5" r="2.5" fx="4.993" fy="43.5" id="h" xlink:href="#e" gradientUnits="userSpaceOnUse" gradientTransform="matrix(2.00378 0 0 1.4 -20.012 -104.4)"/><linearGradient id="e"><stop offset="0" stop-color="#181818"/><stop offset="1" stop-color="#181818" stop-opacity="0"/></linearGradient><linearGradient id="f"><stop offset="0" stop-color="#181818" stop-opacity="0"/><stop offset=".5" stop-color="#181818"/><stop offset="1" stop-color="#181818" stop-opacity="0"/></linearGradient><linearGradient x1="25.058" y1="47.028" x2="25.058" y2="39.999" id="i" xlink:href="#f" gradientUnits="userSpaceOnUse"/></defs><g opacity=".6"><path fill="url(#g)" d="M38 40h5v7h-5z" transform="matrix(1.57895 0 0 .7143 -5.895 27.93)"/><path transform="matrix(-1.57895 0 0 -.7143 -5.895 27.93)" fill="url(#h)" d="M-10-47h5v7h-5z"/><path fill="url(#i)" d="M10 40h28v7H10z" transform="matrix(1.57895 0 0 .7143 -5.895 27.93)"/></g><rect width="55" height="55" rx="3" ry="3" x="4.5" y="4.5" opacity=".9" color="#000" fill="url(#j)" overflow="visible"/><rect width="53" height="53.142" rx="2" ry="2" x="5.5" y="5.429" opacity=".3" fill="none" stroke="url(#k)" stroke-linecap="round" stroke-linejoin="round"/><rect width="55" height="55" rx="3" ry="3" x="4.5" y="4.5" opacity=".7" color="#000" fill="none" stroke="#000" stroke-linecap="round" stroke-linejoin="round" overflow="visible"/><path d="M17 16.063a.926.926 0 0 0-.938.937v.313c-.92.174-1.828.47-2.625 1.125-.007.006-.023-.007-.03 0v.03c-1.632 1.296-1.752 3.664-.563 5.22a.926.926 0 0 0 .03.03c.894 1.084 2.09 1.577 3.188 2v1.032c-.914-.168-1.823-.33-2.687-.72a.926.926 0 0 0-1.313.845v2.375a.926.926 0 0 0 .563.844c1.103.468 2.272.614 3.438.718V32a.926.926 0 0 0 .937.938h1a.926.926 0 0 0 .938-.938v-1.28c.705-.096 1.425-.166 2.125-.532v.03c.013-.006.017-.024.03-.03 1.32-.666 2.268-2.01 2.22-3.532v-.03c-.002-.744-.263-1.44-.688-2.032a.926.926 0 0 0 0-.032c-.985-1.313-2.485-1.807-3.688-2.25v-.906c.695.12 1.414.217 1.97.438a.926.926 0 0 0 1.187-.532l.875-2.125A.926.926 0 0 0 22.5 18c-1.118-.48-2.375-.705-3.563-.813V17a.926.926 0 0 0-.937-.938h-1zm9 16a.926.926 0 0 0-.938.937v3a.926.926 0 0 0 .938.938h11a.926.926 0 0 0 .938-.938v-3a.926.926 0 0 0-.938-.938H26z" style="line-height:125%;-inkscape-font-specification:Open Sans Bold" font-size="14.312" font-weight="700" letter-spacing="0" word-spacing="0" opacity=".15" color="#000" overflow="visible" font-family="Open Sans"/><path d="M17 17v1.063c-1.09.104-2.154.39-3 1.093-1.214.94-1.298 2.8-.406 3.97.862 1.045 2.154 1.526 3.406 2v2.81c-1.396-.113-2.732-.49-4-1.06v2.374c1.27.54 2.62.786 4 .813V32h1v-2c.845-.076 1.908-.226 2.656-.625 1.04-.51 1.765-1.59 1.72-2.72a2.598 2.598 0 0 0-.5-1.53c-.868-1.157-2.567-1.66-3.876-2.188V20.25c1.038.084 2.287.337 3.25.72l.875-2.126c-1.23-.527-2.785-.758-4.125-.813V17h-1zm0 3.28v2.157c-.528-.232-1.274-.523-1.25-1.187-.025-.626.715-.91 1.25-.97zm1 5.345c.524.256 1.488.46 1.5 1.125.03.68-.907 1.015-1.5 1.094v-2.22zM26 33v3h11v-3H26z" style="line-height:125%;-inkscape-font-specification:Open Sans Bold" font-size="14.312" font-weight="700" letter-spacing="0" word-spacing="0" opacity=".3" color="#000" overflow="visible" font-family="Open Sans"/><path d="M17 16v1.063c-1.09.104-2.154.39-3 1.093-1.214.94-1.298 2.8-.406 3.97.862 1.045 2.154 1.526 3.406 2v2.81c-1.396-.113-2.732-.49-4-1.06v2.374c1.27.54 2.62.786 4 .813V31h1v-2c.845-.076 1.908-.226 2.656-.625 1.04-.51 1.765-1.59 1.72-2.72a2.598 2.598 0 0 0-.5-1.53c-.868-1.157-2.567-1.66-3.876-2.188V19.25c1.038.084 2.287.337 3.25.72l.875-2.126c-1.23-.527-2.785-.758-4.125-.813V16h-1zm0 3.28v2.157c-.528-.232-1.274-.523-1.25-1.187-.025-.626.715-.91 1.25-.97zm1 5.345c.524.256 1.488.46 1.5 1.125.03.68-.907 1.015-1.5 1.094v-2.22zM26 32v3h11v-3H26z" style="line-height:125%;-inkscape-font-specification:Open Sans Bold" font-size="14.312" font-weight="700" letter-spacing="0" word-spacing="0" color="#000" fill="url(#l)" overflow="visible" font-family="Open Sans"/></svg>
